Newaita-dark/apps/32/org.gabmus.hydrapaper.svg

<svg height="32" viewBox="0 0 32 32" width="32" xmlns="http://www.w3.org/2000/svg" xmlns:xlink="http://www.w3.org/1999/xlink"><linearGradient id="a" gradientUnits="userSpaceOnUse" x1="15.87652" x2="15.87652" y1="28.033934" y2="29.35697800003"><stop offset="0" stop-opacity=".27451"/><stop offset="1" stop-opacity="0"/></linearGradient><linearGradient id="b"><stop offset="0" stop-opacity=".313726"/><stop offset=".222222" stop-opacity=".27451"/><stop offset="1" stop-opacity="0"/></linearGradient><radialGradient id="c" cx="450.908936" cy="189.579361" gradientTransform="matrix(.00000017 -.0781325 -.140638 -.0000001 53.453691 63.595331)" gradientUnits="userSpaceOnUse" r="21.166656" xlink:href="#b"/><radialGradient id="d" cx="450.908936" cy="189.579361" gradientTransform="matrix(-.00000017 .0781325 .140638 .0000001 -21.700661 -7.527481)" gradientUnits="userSpaceOnUse" r="21.166656" xlink:href="#b"/><radialGradient id="e" cx="450.908936" cy="189.579361" gradientTransform="matrix(-.00000017 -.0781325 .140638 -.0000001 -21.700661 63.595331)" gradientUnits="userSpaceOnUse" r="21.166656" xlink:href="#b"/><radialGradient id="f" cx="450.908936" cy="189.579361" gradientTransform="matrix(.00000017 .0781325 -.140638 .0000001 53.453689 -7.527481)" gradientUnits="userSpaceOnUse" r="21.166656" xlink:href="#b"/><linearGradient id="g" gradientUnits="userSpaceOnUse" x1="15.876524" x2="15.876524" y1="28.033934" y2="4.219148"><stop offset="0" stop-color="#424242"/><stop offset="1" stop-color="#616161"/></linearGradient><linearGradient id="h" gradientTransform="matrix(-.0753497 0 0 -.217412 37.607043 -1.388283)" gradientUnits="userSpaceOnUse" x1="306.916656" x2="305.954559" y1="-25.791676" y2="-135.329163"><stop offset="0" stop-color="#f44336"/><stop offset="1" stop-color="#ef5350"/></linearGradient><linearGradient id="i" gradientTransform="matrix(.0753497 0 0 -.217412 -5.854013 -1.388284)" gradientUnits="userSpaceOnUse" x1="306.916656" x2="305.954559" y1="-25.791676" y2="-135.329163"><stop offset="0" stop-color="#26a69a"/><stop offset="1" stop-color="#4db6ac"/></linearGradient><linearGradient id="j" gradientTransform="matrix(.0753497 0 0 .217412 -5.854013 33.641346)" gradientUnits="userSpaceOnUse" x1="306.916656" x2="305.954559" y1="-25.791676" y2="-135.329163"><stop offset="0" stop-color="#ec407a"/><stop offset="1" stop-color="#f06292"/></linearGradient><linearGradient id="k" gradientTransform="matrix(-.0753497 0 0 .217412 37.607043 33.641346)" gradientUnits="userSpaceOnUse" x1="306.916656" x2="305.954559" y1="-25.791676" y2="-135.329163"><stop offset="0" stop-color="#42a5f5"/><stop offset="1" stop-color="#64b5f6"/></linearGradient><path d="m4.628906 28.035156h22.492188v1.320313h-22.492188zm0 0" fill="url(#a)"/><path d="m27.121094 28.035156h2.648437v-1.324218h-2.648437zm0 0" fill="url(#c)"/><path d="m4.628906 28.035156h-2.644531v1.320313h2.644531zm0 0" fill="url(#d)"/><path d="m4.628906 28.035156h-2.644531v-1.324218h2.644531zm0 0" fill="url(#e)"/><path d="m27.121094 28.035156h2.648437v1.320313h-2.648437zm0 0" fill="url(#f)"/><path d="m3.96875 5.542969h23.816406c.363282 0 .660156.296875.660156.660156v19.847656c0 .363281-.296874.660157-.660156.660157h-23.816406c-.363281 0-.660156-.296876-.660156-.660157v-19.847656c0-.363281.296875-.660156.660156-.660156zm0 0" fill="url(#g)"/><path d="m3.96875 5.542969c-.367188 0-.660156.292969-.660156.660156v.332031c0-.367187.292968-.664062.660156-.664062h23.816406c.363282 0 .660156.296875.660156.664062v-.332031c0-.367187-.296874-.660156-.660156-.660156zm0 0" fill="#fff" fill-opacity=".313726"/><path d="m3.96875 26.710938c-.367188 0-.660156-.296876-.660156-.660157v-.332031c0 .367188.292968.660156.660156.660156h23.816406c.363282 0 .660156-.292968.660156-.660156v.332031c0 .363281-.296874.660157-.660156.660157zm0 0" fill-opacity=".235294"/><path d="m63.493937-126.320968h381.026113c5.811945 0 10.561492 4.749546 10.561492 10.561491v317.532177c0 5.811945-4.749547 10.561492-10.561492 10.561492h-381.026113c-5.811945 0-10.561492-4.749547-10.561492-10.561492v-317.532177c0-5.811945 4.749547-10.561491 10.561492-10.561491zm0 0" fill="none" stroke="#212121" stroke-linecap="round" stroke-linejoin="round" stroke-width="3" transform="matrix(.062506 0 0 .062506 0 13.438783)"/><path d="m16.539062 16.789062v11.246094h11.90625c.734376 0 1.324219-.589844 1.324219-1.324218v-9.921876zm0 0" fill="url(#h)"/><path d="m16.539062 16.789062v.25h13.230469v-.25zm0 0" fill="#fff" fill-opacity=".392157"/><path d="m1000.062032 1015.178699v680.013838h719.931288c44.40521 0 80.071098-35.665887 80.071098-80.071098v-599.94274zm0 0" fill="none" stroke="#212121" stroke-linecap="round" stroke-width="11.338583" transform="scale(.016538)"/><path d="m1.984375 16.789062v9.921876c0 .734374.589844 1.324218 1.324219 1.324218h11.90625v-11.246094zm0 0" fill="url(#i)"/><path d="m1.984375 16.789062v.25h13.230469v-.25zm0 0" fill="#fff" fill-opacity=".392157"/><path d="m3.308594 4.21875c-.734375 0-1.324219.589844-1.324219 1.324219v9.921875h13.230469v-11.246094zm0 0" fill="url(#j)"/><path d="m16.539062 4.21875v11.246094h13.230469v-9.921875c0-.734375-.589843-1.324219-1.324219-1.324219zm0 0" fill="url(#k)"/><path d="m3.308594 4.21875c-.734375 0-1.324219.589844-1.324219 1.324219v.34375c0-.734375.589844-1.324219 1.324219-1.324219h11.90625v-.34375zm13.230468 0v.34375h11.90625c.734376 0 1.324219.589844 1.324219 1.324219v-.34375c0-.734375-.589843-1.324219-1.324219-1.324219zm0 0" fill="#fff" fill-opacity=".392157"/><path d="m119.988548 1015.178699v599.94274c0 44.405211 35.665887 80.071098 80.071098 80.071098h719.931288v-680.013838zm0 0" fill="none" stroke="#212121" stroke-linecap="round" stroke-width="11.338583" transform="scale(.016538)"/><path d="m3.308594 28.046875c-.734375 0-1.324219-.589844-1.324219-1.324219v-.34375c0 .734375.589844 1.324219 1.324219 1.324219h25.136718c.734376 0 1.324219-.589844 1.324219-1.324219v.34375c0 .734375-.589843 1.324219-1.324219 1.324219zm0 0" fill-opacity=".235294"/><path d="m200.059646 255.093763c-44.405211 0-80.071098 35.665888-80.071098 80.071098v599.94274h800.002386v-680.013838zm0 0" fill="none" stroke="#212121" stroke-linecap="round" stroke-width="11.338583" transform="scale(.016538)"/><path d="m1000.062032 255.093763v680.013838h800.002386v-599.94274c0-44.40521-35.665888-80.071098-80.071098-80.071098zm0 0" fill="none" stroke="#212121" stroke-linecap="round" stroke-width="11.338583" transform="scale(.016538)"/><g fill-opacity=".235294"><path d="m3.308594 15.464844v.496094h11.90625v-.496094zm0 0"/><path d="m16.539062 15.464844v.496094h11.90625v-.496094zm0 0"/></g></svg>

<?xml version="1.0" encoding="UTF-8"?>
<svg xmlns="http://www.w3.org/2000/svg" xmlns:xlink="http://www.w3.org/1999/xlink" width="32px" height="32px" viewBox="0 0 32 32" version="1.1">
<defs>
<linearGradient id="linear0" gradientUnits="userSpaceOnUse" x1="254" y1="233.5" x2="254" y2="254.666672" gradientTransform="matrix(0.062506,0,0,0.062506,-0.00000381506,13.438783)">
<stop offset="0" style="stop-color:rgb(0%,0%,0%);stop-opacity:0.27451;"/>
<stop offset="1" style="stop-color:rgb(0%,0%,0%);stop-opacity:0;"/>
</linearGradient>
<radialGradient id="radial0" gradientUnits="userSpaceOnUse" cx="450.908936" cy="189.579361" fx="450.908936" fy="189.579361" r="21.166656" gradientTransform="matrix(0.00000017417,-0.0781325,-0.140638,-0.000000101539,53.453691,63.595331)">
<stop offset="0" style="stop-color:rgb(0%,0%,0%);stop-opacity:0.313726;"/>
<stop offset="0.222222" style="stop-color:rgb(0%,0%,0%);stop-opacity:0.27451;"/>
<stop offset="1" style="stop-color:rgb(0%,0%,0%);stop-opacity:0;"/>
</radialGradient>
<radialGradient id="radial1" gradientUnits="userSpaceOnUse" cx="450.908936" cy="189.579361" fx="450.908936" fy="189.579361" r="21.166656" gradientTransform="matrix(-0.00000017417,0.0781325,0.140638,0.000000101539,-21.700661,-7.527481)">
<stop offset="0" style="stop-color:rgb(0%,0%,0%);stop-opacity:0.313726;"/>
<stop offset="0.222222" style="stop-color:rgb(0%,0%,0%);stop-opacity:0.27451;"/>
<stop offset="1" style="stop-color:rgb(0%,0%,0%);stop-opacity:0;"/>
</radialGradient>
<radialGradient id="radial2" gradientUnits="userSpaceOnUse" cx="450.908936" cy="189.579361" fx="450.908936" fy="189.579361" r="21.166656" gradientTransform="matrix(-0.00000017417,-0.0781325,0.140638,-0.000000101539,-21.700661,63.595331)">
<stop offset="0" style="stop-color:rgb(0%,0%,0%);stop-opacity:0.313726;"/>
<stop offset="0.222222" style="stop-color:rgb(0%,0%,0%);stop-opacity:0.27451;"/>
<stop offset="1" style="stop-color:rgb(0%,0%,0%);stop-opacity:0;"/>
</radialGradient>
<radialGradient id="radial3" gradientUnits="userSpaceOnUse" cx="450.908936" cy="189.579361" fx="450.908936" fy="189.579361" r="21.166656" gradientTransform="matrix(0.00000017417,0.0781325,-0.140638,0.000000101539,53.453689,-7.527481)">
<stop offset="0" style="stop-color:rgb(0%,0%,0%);stop-opacity:0.313726;"/>
<stop offset="0.222222" style="stop-color:rgb(0%,0%,0%);stop-opacity:0.27451;"/>
<stop offset="1" style="stop-color:rgb(0%,0%,0%);stop-opacity:0;"/>
</radialGradient>
<linearGradient id="linear1" gradientUnits="userSpaceOnUse" x1="254" y1="233.5" x2="254" y2="-147.5" gradientTransform="matrix(0.062506,0,0,0.062506,0,13.438783)">
<stop offset="0" style="stop-color:rgb(25.882354%,25.882354%,25.882354%);stop-opacity:1;"/>
<stop offset="1" style="stop-color:rgb(38.039216%,38.039216%,38.039216%);stop-opacity:1;"/>
</linearGradient>
<linearGradient id="linear2" gradientUnits="userSpaceOnUse" x1="306.916656" y1="-25.791676" x2="305.954559" y2="-135.329163" gradientTransform="matrix(-0.0753497,0,0,-0.217412,37.607043,-1.388283)">
<stop offset="0" style="stop-color:rgb(95.686275%,26.274511%,21.176471%);stop-opacity:1;"/>
<stop offset="1" style="stop-color:rgb(93.725491%,32.549021%,31.37255%);stop-opacity:1;"/>
</linearGradient>
<linearGradient id="linear3" gradientUnits="userSpaceOnUse" x1="306.916656" y1="-25.791676" x2="305.954559" y2="-135.329163" gradientTransform="matrix(0.0753497,0,0,-0.217412,-5.854013,-1.388284)">
<stop offset="0" style="stop-color:rgb(14.901961%,65.098041%,60.392159%);stop-opacity:1;"/>
<stop offset="1" style="stop-color:rgb(30.19608%,71.372551%,67.450982%);stop-opacity:1;"/>
</linearGradient>
<linearGradient id="linear4" gradientUnits="userSpaceOnUse" x1="306.916656" y1="-25.791676" x2="305.954559" y2="-135.329163" gradientTransform="matrix(0.0753497,0,0,0.217412,-5.854013,33.641346)">
<stop offset="0" style="stop-color:rgb(92.54902%,25.098041%,47.843137%);stop-opacity:1;"/>
<stop offset="1" style="stop-color:rgb(94.117647%,38.431373%,57.254905%);stop-opacity:1;"/>
</linearGradient>
<linearGradient id="linear5" gradientUnits="userSpaceOnUse" x1="306.916656" y1="-25.791676" x2="305.954559" y2="-135.329163" gradientTransform="matrix(-0.0753497,0,0,0.217412,37.607043,33.641346)">
<stop offset="0" style="stop-color:rgb(25.882354%,64.705884%,96.078432%);stop-opacity:1;"/>
<stop offset="1" style="stop-color:rgb(39.215687%,70.980394%,96.470588%);stop-opacity:1;"/>
</linearGradient>
</defs>
<g id="surface1">
<path style=" stroke:none;fill-rule:nonzero;fill:url(#linear0);" d="M 4.628906 28.035156 L 27.121094 28.035156 L 27.121094 29.355469 L 4.628906 29.355469 Z M 4.628906 28.035156 "/>
<path style=" stroke:none;fill-rule:nonzero;fill:url(#radial0);" d="M 27.121094 28.035156 L 29.769531 28.035156 L 29.769531 26.710938 L 27.121094 26.710938 Z M 27.121094 28.035156 "/>
<path style=" stroke:none;fill-rule:nonzero;fill:url(#radial1);" d="M 4.628906 28.035156 L 1.984375 28.035156 L 1.984375 29.355469 L 4.628906 29.355469 Z M 4.628906 28.035156 "/>
<path style=" stroke:none;fill-rule:nonzero;fill:url(#radial2);" d="M 4.628906 28.035156 L 1.984375 28.035156 L 1.984375 26.710938 L 4.628906 26.710938 Z M 4.628906 28.035156 "/>
<path style=" stroke:none;fill-rule:nonzero;fill:url(#radial3);" d="M 27.121094 28.035156 L 29.769531 28.035156 L 29.769531 29.355469 L 27.121094 29.355469 Z M 27.121094 28.035156 "/>
<path style=" stroke:none;fill-rule:nonzero;fill:url(#linear1);" d="M 3.96875 5.542969 L 27.785156 5.542969 C 28.148438 5.542969 28.445312 5.839844 28.445312 6.203125 L 28.445312 26.050781 C 28.445312 26.414062 28.148438 26.710938 27.785156 26.710938 L 3.96875 26.710938 C 3.605469 26.710938 3.308594 26.414062 3.308594 26.050781 L 3.308594 6.203125 C 3.308594 5.839844 3.605469 5.542969 3.96875 5.542969 Z M 3.96875 5.542969 "/>
<path style=" stroke:none;fill-rule:nonzero;fill:rgb(100%,100%,100%);fill-opacity:0.313726;" d="M 3.96875 5.542969 C 3.601562 5.542969 3.308594 5.835938 3.308594 6.203125 L 3.308594 6.535156 C 3.308594 6.167969 3.601562 5.871094 3.96875 5.871094 L 27.785156 5.871094 C 28.148438 5.871094 28.445312 6.167969 28.445312 6.535156 L 28.445312 6.203125 C 28.445312 5.835938 28.148438 5.542969 27.785156 5.542969 Z M 3.96875 5.542969 "/>
<path style=" stroke:none;fill-rule:nonzero;fill:rgb(0%,0%,0%);fill-opacity:0.235294;" d="M 3.96875 26.710938 C 3.601562 26.710938 3.308594 26.414062 3.308594 26.050781 L 3.308594 25.71875 C 3.308594 26.085938 3.601562 26.378906 3.96875 26.378906 L 27.785156 26.378906 C 28.148438 26.378906 28.445312 26.085938 28.445312 25.71875 L 28.445312 26.050781 C 28.445312 26.414062 28.148438 26.710938 27.785156 26.710938 Z M 3.96875 26.710938 "/>
<path style="fill:none;stroke-width:3;stroke-linecap:round;stroke-linejoin:round;stroke:rgb(12.941177%,12.941177%,12.941177%);stroke-opacity:1;stroke-miterlimit:4;" d="M 63.493937 -126.320968 L 444.52005 -126.320968 C 450.331995 -126.320968 455.081542 -121.571422 455.081542 -115.759477 L 455.081542 201.7727 C 455.081542 207.584645 450.331995 212.334192 444.52005 212.334192 L 63.493937 212.334192 C 57.681992 212.334192 52.932445 207.584645 52.932445 201.7727 L 52.932445 -115.759477 C 52.932445 -121.571422 57.681992 -126.320968 63.493937 -126.320968 Z M 63.493937 -126.320968 " transform="matrix(0.062506,0,0,0.062506,0,13.438783)"/>
<path style=" stroke:none;fill-rule:nonzero;fill:url(#linear2);" d="M 16.539062 16.789062 L 16.539062 28.035156 L 28.445312 28.035156 C 29.179688 28.035156 29.769531 27.445312 29.769531 26.710938 L 29.769531 16.789062 Z M 16.539062 16.789062 "/>
<path style=" stroke:none;fill-rule:nonzero;fill:rgb(100%,100%,100%);fill-opacity:0.392157;" d="M 16.539062 16.789062 L 16.539062 17.039062 L 29.769531 17.039062 L 29.769531 16.789062 Z M 16.539062 16.789062 "/>
<path style="fill:none;stroke-width:11.338583;stroke-linecap:round;stroke-linejoin:miter;stroke:rgb(12.941177%,12.941177%,12.941177%);stroke-opacity:1;stroke-miterlimit:4;" d="M 1000.062032 1015.178699 L 1000.062032 1695.192537 L 1719.99332 1695.192537 C 1764.39853 1695.192537 1800.064418 1659.52665 1800.064418 1615.121439 L 1800.064418 1015.178699 Z M 1000.062032 1015.178699 " transform="matrix(0.016538,0,0,0.016538,0,0)"/>
<path style=" stroke:none;fill-rule:nonzero;fill:url(#linear3);" d="M 1.984375 16.789062 L 1.984375 26.710938 C 1.984375 27.445312 2.574219 28.035156 3.308594 28.035156 L 15.214844 28.035156 L 15.214844 16.789062 Z M 1.984375 16.789062 "/>
<path style=" stroke:none;fill-rule:nonzero;fill:rgb(100%,100%,100%);fill-opacity:0.392157;" d="M 1.984375 16.789062 L 1.984375 17.039062 L 15.214844 17.039062 L 15.214844 16.789062 Z M 1.984375 16.789062 "/>
<path style=" stroke:none;fill-rule:nonzero;fill:url(#linear4);" d="M 3.308594 4.21875 C 2.574219 4.21875 1.984375 4.808594 1.984375 5.542969 L 1.984375 15.464844 L 15.214844 15.464844 L 15.214844 4.21875 Z M 3.308594 4.21875 "/>
<path style=" stroke:none;fill-rule:nonzero;fill:url(#linear5);" d="M 16.539062 4.21875 L 16.539062 15.464844 L 29.769531 15.464844 L 29.769531 5.542969 C 29.769531 4.808594 29.179688 4.21875 28.445312 4.21875 Z M 16.539062 4.21875 "/>
<path style=" stroke:none;fill-rule:nonzero;fill:rgb(100%,100%,100%);fill-opacity:0.392157;" d="M 3.308594 4.21875 C 2.574219 4.21875 1.984375 4.808594 1.984375 5.542969 L 1.984375 5.886719 C 1.984375 5.152344 2.574219 4.5625 3.308594 4.5625 L 15.214844 4.5625 L 15.214844 4.21875 Z M 16.539062 4.21875 L 16.539062 4.5625 L 28.445312 4.5625 C 29.179688 4.5625 29.769531 5.152344 29.769531 5.886719 L 29.769531 5.542969 C 29.769531 4.808594 29.179688 4.21875 28.445312 4.21875 Z M 16.539062 4.21875 "/>
<path style="fill:none;stroke-width:11.338583;stroke-linecap:round;stroke-linejoin:miter;stroke:rgb(12.941177%,12.941177%,12.941177%);stroke-opacity:1;stroke-miterlimit:4;" d="M 119.988548 1015.178699 L 119.988548 1615.121439 C 119.988548 1659.52665 155.654435 1695.192537 200.059646 1695.192537 L 919.990934 1695.192537 L 919.990934 1015.178699 Z M 119.988548 1015.178699 " transform="matrix(0.016538,0,0,0.016538,0,0)"/>
<path style=" stroke:none;fill-rule:nonzero;fill:rgb(0%,0%,0%);fill-opacity:0.235294;" d="M 3.308594 28.046875 C 2.574219 28.046875 1.984375 27.457031 1.984375 26.722656 L 1.984375 26.378906 C 1.984375 27.113281 2.574219 27.703125 3.308594 27.703125 L 28.445312 27.703125 C 29.179688 27.703125 29.769531 27.113281 29.769531 26.378906 L 29.769531 26.722656 C 29.769531 27.457031 29.179688 28.046875 28.445312 28.046875 Z M 3.308594 28.046875 "/>
<path style="fill:none;stroke-width:11.338583;stroke-linecap:round;stroke-linejoin:miter;stroke:rgb(12.941177%,12.941177%,12.941177%);stroke-opacity:1;stroke-miterlimit:4;" d="M 200.059646 255.093763 C 155.654435 255.093763 119.988548 290.759651 119.988548 335.164861 L 119.988548 935.107601 L 919.990934 935.107601 L 919.990934 255.093763 Z M 200.059646 255.093763 " transform="matrix(0.016538,0,0,0.016538,0,0)"/>
<path style="fill:none;stroke-width:11.338583;stroke-linecap:round;stroke-linejoin:miter;stroke:rgb(12.941177%,12.941177%,12.941177%);stroke-opacity:1;stroke-miterlimit:4;" d="M 1000.062032 255.093763 L 1000.062032 935.107601 L 1800.064418 935.107601 L 1800.064418 335.164861 C 1800.064418 290.759651 1764.39853 255.093763 1719.99332 255.093763 Z M 1000.062032 255.093763 " transform="matrix(0.016538,0,0,0.016538,0,0)"/>
<path style=" stroke:none;fill-rule:nonzero;fill:rgb(0%,0%,0%);fill-opacity:0.235294;" d="M 3.308594 15.464844 L 3.308594 15.960938 L 15.214844 15.960938 L 15.214844 15.464844 Z M 3.308594 15.464844 "/>
<path style=" stroke:none;fill-rule:nonzero;fill:rgb(0%,0%,0%);fill-opacity:0.235294;" d="M 16.539062 15.464844 L 16.539062 15.960938 L 28.445312 15.960938 L 28.445312 15.464844 Z M 16.539062 15.464844 "/>
</g>
</svg>
